assets/img/main/transition/first.svg

<svg xmlns="http://www.w3.org/2000/svg" viewBox="0 0 1920 425.01">
  <path d="M1809,83.66c-32.72-2.26-63-8.64-92.15-5.14-28.93,3.47-56.66,16.86-85.43,26.07-23.81-24.74-52.19-29.85-86-15.32-11.37-33.49-29.57-61.39-64.93-68.47C1445.79,13.85,1416.76,29,1392.9,55c-24.19-11.82-44.15-6-57.72,11.79-22.23-17.8-41.35-36.21-63.35-50-35.39-22.23-74.1-18.5-113.69-10.71-43.78,8.61-92.62,68.46-80.82,117.07,2.51,10.34,3.73,21,6.44,36.68-42.23-25.06-82-29.53-125.05-19.64-45.74,10.51-71.15,43.93-96.37,79.38-30.07-16.78-57.3-12-82.8,4.47l-25.09-14.33-35.12,8.36c-1.29-26.47-11.77-49.15-31.48-66.3-20.9-18.19-46.19-17.76-73.33-11.1-2.23-12.9-3.54-24.6-6.34-35.94-6.83-27.57-16.56-35.57-46.07-38.49l-17,17C488.2,40.17,427.77,31.29,368,72.61c-58.61,40.52-67.47,98.71-44,164.85-49.86-27.33-69.42-26.93-100.41.5-7.5,13.22-9,25.08-7,36.33L213.71,271l-13.12,1.83-10.39-7.72L174.54,269c-5-8.37-9.23-17-14.88-24.5-17.23-22.94-46.62-22-60.7,1.42a20.76,20.76,0,0,1-2.06,2.39l-8.83,2.41-5.19,8.55c-8.81.9-17.34.29-24.81,2.82-21.93,7.42-45.38,28.42-38.48,64.41.36,1.86-.73,4-1.31,6.77-7-2.6-13-2.92-18.28-1.36V425H1920V43.62C1875.42,37.83,1834.82,46.61,1809,83.66Z"/>
</svg>

<?xml version="1.0" encoding="utf-8"?>
<svg viewBox="0 0.020999999716877937 1920 770.114990234375" xmlns="http://www.w3.org/2000/svg">
  <path d="M 1809 83.66 C 1776.28 81.4 1746 75.02 1716.85 78.52 C 1687.92 81.99 1660.19 95.38 1631.42 104.59 C 1607.61 79.85 1579.23 74.74 1545.42 89.27 C 1534.05 55.78 1515.85 27.88 1480.49 20.8 C 1445.79 13.85 1416.76 29 1392.9 55 C 1368.71 43.18 1348.75 49 1335.18 66.79 C 1312.95 48.99 1293.83 30.58 1271.83 16.79 C 1236.44 -5.44 1197.73 -1.71 1158.14 6.08 C 1114.36 14.69 1065.52 74.54 1077.32 123.15 C 1079.83 133.49 1081.05 144.15 1083.76 159.83 C 1041.53 134.77 1001.76 130.3 958.71 140.19 C 912.97 150.7 887.56 184.12 862.34 219.57 C 832.27 202.79 805.04 207.57 779.54 224.04 L 754.45 209.71 L 719.33 218.07 C 718.04 191.6 707.56 168.92 687.85 151.77 C 666.95 133.58 641.66 134.01 614.52 140.67 C 612.29 127.77 610.98 116.07 608.18 104.73 C 601.35 77.16 591.62 69.16 562.11 66.24 L 545.11 83.24 C 488.2 40.17 427.77 31.29 368 72.61 C 309.39 113.13 300.53 171.32 324 237.46 C 274.14 210.13 254.58 210.53 223.59 237.96 C 216.09 251.18 214.59 263.04 216.59 274.29 L 213.71 271 L 200.59 272.83 L 190.2 265.11 L 174.54 269 C 169.54 260.63 165.31 252 159.66 244.5 C 142.43 221.56 113.04 222.5 98.96 245.92 C 98.335 246.768 97.646 247.567 96.9 248.31 L 88.07 250.72 L 82.88 259.27 C 74.07 260.17 65.54 259.56 58.07 262.09 C 36.14 269.51 12.69 290.51 19.59 326.5 C 19.95 328.36 18.86 330.5 18.28 333.27 C 11.28 330.67 5.28 330.35 0 331.91 L 0 770.136 L 1920 768.685 L 1920 43.62 C 1875.42 37.83 1834.82 46.61 1809 83.66 Z"/>
</svg>
